X:115
T:What Child is This?
T:Greensleeves
C:16th century English 
M:6/8
L:1/8
Q:1/4=88
P:BABABAB
%%staffsep  20pt
V:S
%%MIDI program 1 56 %Trumpet
V:A
%%MIDI program 2 60 %French Horn
V:T clef=treble_8 
%%MIDI program 3 57 %Trombone
%%score (S A) T
K:Dmin
P:A
[V:S]
D | F2 G A>B A | G2 E C>D E |
F2 D D>^C D | E3 A,2 D | F2 G A>B A |
G2 E C>D E | F>E D ^C>=B, C | D3 D3 | c3 c>=B A |
G2 E C>D E | F2 D D>^C D | E2 ^C A,3 |
[V:A]
D | D2 C C2 F | E2 C C2 C | A,2 A, G,2 D | ^C3 A,2 D | D2 C C2 F | E2 C C2 C | A,2 B, A,2 A, | A,3 A,3 |
w:1~What Child is this, who, laid to rest, On Ma-ry's lap is sleep-ing? Whom an-gels greet with an-thems sweet, While shep-herds watch are keep-ing?
w:2~Why lies he in such mean es-tate Where ox and ass are feed-ing? Good Chris-tian, fear; for sin-ners here The si-lent Word is plead-ing.
w:3~So bring Him in-cense, gold and myrrh, Come, peas-ant king, to own Him; The King of kings sal-va-tion brings, Let lov-ing hearts en-throne Him.
 E3 A>G F | E2 C C2 C | A,2 A, G,2 D | ^C2 A, A,3 | 
w: This, this* is Christ the King, Whom shep-herds guard and an-gels sing 
[V:T]
F, | A,2 G, F,2 A, | C2 G, E,2 G, |
F,2 F, D,2 D, | A,3 A,2 F, | A,2 G, F,2 A, |
C2 G, E,2 G, | F,2 G, E,2 A, | G,3 F,3 | C3 C2 C |
C2 G, E,2 G, | F,2 F, D,2 D, | A,2 A, A,3 |
P:B
[V:S]
c3 c>=B A | G2 E C>D E | F>E D ^C>=B, C | D3 D2 x/|]
[V:A]
 E3 A>G F | E2 C C2 C | A,2 B, A,2 A, | A,3 A,2 x/|]
w: Haste, haste* to bring Him laud, The Babe, the Son of Ma-ry.
[V:T]
C3 C2 C | C2 G, E,2 G, | F,2 G, E,2 A, | G,3 F,2 x/|]

